X: 1
T: Hand-Organ Polka
S: Ford "Traditional Music of America", 1940; p.164
O: American
R: polka
Z: 2017 John Chambers <jc:trillian.mit.edu>
M: 2/4
L: 1/16
K: D
|: "D"f2f2 "G"fgfb | "D"a2a2 f3f |\
[1,3 "A7"g2g2 e2e2 | "D"f2f2 d3e :|\
[2,4 "A7"g2g2 e2c2 | "D"d2d2 Hd2z2 :|
|: "D"fff2 "G"ggg2 | g2f2 d3e | "A7"f2e2 f3e |\
[1,3 "D"e2d2 A4 :|2,4 "D"d2d2 d2z2 :| [K:=c]
K:G
|: "G"B4 B4 | B6 DG | B2c2 ^c2d2 | "C"f4 e4 |\
      A4 A4 | A6 ^GA | B2A2 F2D2 | "G"E4 D4 ||
|| "G"B4 B4 | B6 DG | B2c2 ^c2d2 | "C"f4 e4 |\
  "D7"d2^cd e2fe | "G"e2d2- d2B2 | "D7"d2c2 A2F2 | "G"G2G2 G2z2 :|
